X:10
T:Mr Hornby's Minuet
C:Andy Hornby 1996
I:abc2nwc
M:6/8
L:1/8
K:G
B|e3/2f/2e d2c|B3E3/2F/2G|[1A3/2B/2c B2A|B3-B2e|
e3/2f/2e d2c|B3E3/2F/2G|ABc BF3/2G/2|E3-E2:|
[2A3/2B/2c B2B|^d3def|g3/2f/2e f3/2e/2^d|
eBB c2A|Bc3/2B/2 B^df|e3-e2[|
|:f|g3/2f/2e efg|fB3/2c/2 B2e/2f/2|g3/2f/2e f b2|
b3-bba|g3/2f/2e efg|f B2c2A|B3/2c/2B B^dB|e3-e2:|
%%vskip 2.5cm
